X: 1
T: da Kirk Stack
R: reel
D: Fiddlers' Bid "Naked and Bare" track 9
Z: 2012 John Chambers <jc:trillian.mit.edu>
M: C|
L: 1/8
K: E
fe | "B7"dB~B2 BAGF | "E"E2B,E GEFG | "F#m"A2GA c2Bc | "B7"fgaf dBfe |
y4 | "B7"dB~B2 BAGF | "E"E2B,E GEFG | "F#m"A2fe "B7"dBcd | "E"e2g2 e2 ||
fe | "B7"dB~B2 BAGF | "E"E2B,E GEFG | "F#m"A2GA c2Bc | "B7"fgaf dBcd |
y4 | "E"e2gf ebge | "F#m"fgaf c2fe | "B7"dB~B2 BcdB | "E"e2g2 e2 ||
|: ed | "E"e2gf ebge | "F#m"fgaf c2fe | "B7"dB~B2 BcdB | "E"efge "B7"b2(3Bcd |
   y4 | "E"e2gf ebge | "F#m"fgaf c2fe | "B7"dB~B2 BcdB | "E"e2g2 e2 :|
